static/images/mobile/copyright/wikipedia-wordmark-mr.svg

<?xml version="1.0" encoding="UTF-8"?>
<svg width="107px" height="25px" viewBox="0 0 107 25" version="1.1" xmlns="http://www.w3.org/2000/svg" xmlns:xlink="http://www.w3.org/1999/xlink">
    <title>Combined Shape</title>
    <g id="Page-1" stroke="none" stroke-width="1" fill="none" fill-rule="evenodd">
        <path d="M104.893149,7.7231 L106.451419,9.29274 L102.561429,9.29274 L102.561429,24.03374 L100.696059,22.14562 L100.696059,9.29274 L96.703699,9.29274 L96.703699,24.03374 L94.849699,22.157 L94.849699,18.02815 C93.932169,19.08217 92.756829,19.60917 91.323689,19.60917 C89.556889,19.60917 88.207139,18.9343 87.274459,17.58456 C86.667829,16.70496 86.364519,15.70403 86.364519,14.58176 C87.046969,14.58177 87.657389,14.40736 88.195769,14.05855 C88.794809,13.67183 89.147409,13.15999 89.253579,12.52302 C89.299079,12.37138 89.321779,12.10977 89.321779,11.7382 C89.321779,10.63112 88.904719,9.81597 88.070619,9.29274 L81.780711,9.29274 L81.780711,14.25191 L76.457571,14.22911 C75.024413,14.22111 74.307838,14.56276 74.307842,15.25279 C74.307838,15.66227 74.42158,16.01108 74.649069,16.29922 C74.891714,16.61012 75.213984,16.76557 75.615878,16.76556 C75.934351,16.76557 76.408277,16.71626 77.037657,16.6177 C77.667023,16.51155 78.140949,16.45847 78.459436,16.45846 C79.551352,16.45847 80.48783,16.92102 81.26887,17.84611 C82.019558,18.72573 82.394907,19.72287 82.394919,20.83754 C82.394907,21.72473 81.951312,22.49438 81.064134,23.1465 C80.252762,23.74555 79.38453,24.04507 78.459436,24.04507 C76.738129,24.04507 75.107824,23.26404 73.568517,21.70198 C72.529668,20.64797 71.449117,19.12003 70.326862,17.11816 L71.02069,16.72007 C71.748639,18.10014 72.632036,19.28685 73.670885,20.2802 C74.982708,21.53895 76.264203,22.16832 77.515375,22.16832 C78.341894,22.16832 79.088801,21.89913 79.756098,21.36075 C80.476455,20.79204 80.836639,20.1058 80.83665,19.30202 C80.836639,18.96838 80.722897,18.68402 80.495423,18.44895 C80.267928,18.21389 79.991155,18.09635 79.665104,18.09635 C79.323868,18.09635 78.834776,18.22905 78.197828,18.49444 C77.568447,18.75227 77.086938,18.88117 76.753301,18.88117 C75.888854,18.88117 75.126781,18.43379 74.467081,17.53901 C74.262341,17.27362 73.807372,16.45847 73.102174,15.09355 C72.821606,14.55518 72.681324,14.11917 72.681327,13.78551 C72.681324,13.14099 73.026342,12.71256 73.716382,12.50023 C74.103102,12.37891 74.713518,12.31825 75.547633,12.31824 L80.08595,12.31824 L80.08595,9.29269 L68.359121,9.29274 L68.359121,24.03374 L66.470999,22.157 L66.470999,9.29274 L62.490019,9.29274 L62.490019,24.011 L60.601896,22.12287 L60.601896,9.29274 L56.666413,9.29274 L56.666413,24.03374 L54.710046,22.066 L54.710046,17.36845 C54.088246,17.74001 53.163143,17.92579 51.934734,17.92578 C50.729061,17.80446 49.712964,17.2585 48.88644,16.28789 C48.067494,15.34005 47.658022,14.25571 47.658024,13.03486 L47.658024,9.29274 L36.943499,9.29274 L36.943499,13.67182 C37.170973,13.4671 37.337795,13.32681 37.443965,13.25098 C37.70177,13.06142 37.955794,12.93251 38.206039,12.86425 C38.721658,12.72019 39.203166,12.64815 39.650566,12.64814 C40.810723,12.64815 41.769948,13.05383 42.528246,13.86518 C43.286511,14.66897 43.665651,15.65853 43.665669,16.83386 C43.665651,17.77413 43.332008,18.66132 42.664737,19.49543 C42.164255,20.13997 41.379433,20.67835 40.310271,21.11057 L39.479952,19.49543 C40.556698,18.99497 41.277065,18.60066 41.641056,18.31251 C42.444819,17.68314 42.846708,16.9931 42.846724,16.2424 C42.846708,15.56753 42.532021,14.95712 41.902663,14.41115 C41.500758,14.06993 40.875176,13.94102 40.025915,14.02442 C39.624012,14.06232 39.13113,14.32775 38.547265,14.82062 C37.970959,15.30593 37.436371,15.90118 36.943499,16.60637 L36.943499,24.03374 L35.055377,22.12287 L35.055377,18.81297 C34.729307,19.17695 34.247799,19.49164 33.61085,19.75703 C32.973886,20.01485 32.401384,20.14376 31.893341,20.14376 C30.793828,20.14376 29.853559,19.76841 29.072532,19.01771 C28.299083,18.26702 27.912359,17.34191 27.912361,16.2424 C27.912359,15.12015 28.280126,14.19505 29.015661,13.46709 C29.751191,12.73156 30.680086,12.3638 31.802347,12.36379 C33.22791,12.3638 34.312253,12.97042 35.055377,14.18366 L35.055377,9.29274 L24.500091,9.29274 L24.500091,24.03374 L22.611969,22.14562 L22.611969,9.29274 L18.665111,9.29274 L18.665111,24.03374 L16.640498,22.00913 L16.640498,17.92578 C16.071777,18.30493 15.419655,18.63857 14.68413,18.92672 C13.84243,19.25278 13.137229,19.40065 12.568524,19.37031 C11.415931,19.30961 10.418791,18.75232 9.577101,17.6983 C8.909811,16.85661 8.576167,15.86326 8.576169,14.71825 C8.705075,14.1268 8.924977,13.65287 9.235874,13.29647 C10.441539,12.15906 11.776114,11.61689 13.239603,11.66996 C14.695497,11.71546 15.829127,12.41309 16.640498,13.76282 L16.640498,9.29274 L5.1639,9.29274 L5.1639,24.03374 L3.275778,22.14562 L3.275778,9.29274 L1.592392,9.29274 L1.77635684e-15,7.7231 L3.298526,7.7231 C2.540244,6.60844 2.161103,5.25112 2.161103,3.65113 C2.161103,2.50614 2.604697,1.59999 3.491888,0.93268 C4.212254,0.39433 5.182854,0.12511 6.403691,0.12511 C7.632102,0.12511 8.686113,0.26163 9.565727,0.53459 C10.589399,0.84551 11.609287,1.39147 12.625395,2.17248 C14.3488033,3.50220353 15.6828821,5.3522499 16.6276352,7.7226003 L20.962705,7.7231 L22.634718,7.7231 C21.876435,6.60844 21.497294,5.25112 21.497295,3.65113 C21.497294,2.50614 21.940889,1.59999 22.82808,0.93268 C23.548445,0.39433 24.519045,0.12511 25.739882,0.12511 C26.968293,0.12511 28.022304,0.26163 28.901918,0.53459 C29.92559,0.84551 30.945478,1.39147 31.961586,2.17248 C33.6849943,3.50220353 35.0190731,5.3522499 35.9638262,7.7226003 L45.906392,7.7231 L60.909001,7.7231 C60.545024,6.65394 60.02181,5.61889 59.339357,4.61793 C58.444585,3.30613 57.591518,2.65021 56.780155,2.65019 C55.983962,2.65021 55.350797,2.97628 54.880659,3.62838 C54.456026,4.21227 54.243707,4.91748 54.243702,5.74398 C54.243707,6.25963 54.406737,6.86626 54.732794,7.56386 L52.890169,7.56386 C52.632359,6.88142 52.503445,6.17622 52.503445,5.44825 C52.503445,4.09095 52.784015,3.01798 53.345138,2.22935 C53.997265,1.32701 54.975448,0.87581 56.279689,0.87581 C57.674929,0.87581 58.895762,1.70615 59.942191,3.36677 C60.48057,4.22365 61.1289,5.67576 61.887184,7.7231 L66.493747,7.7231 C65.735464,6.60844 65.356324,5.25112 65.356324,3.65113 C65.356324,2.47581 65.868164,1.55071 66.891845,0.87581 C67.779032,0.29196 68.844417,0 70.088004,0 C72.446253,0 74.637686,0.78105 76.662309,2.34309 C78.9367905,4.10067315 80.5532339,5.89419248 81.5116431,7.72365723 L104.893149,7.7231 Z M32.757783,13.9903 C31.650685,13.99031 30.793828,14.20642 30.187207,14.63863 C29.353093,15.2301 28.898125,16.01871 28.822299,17.00447 C28.776799,17.62627 28.947413,18.12673 29.33414,18.50587 C29.652614,18.80919 30.092418,18.96084 30.65355,18.96084 C31.457324,18.96084 32.378635,18.55137 33.417488,17.73242 C34.509406,16.86799 35.055368,16.04146 35.055377,15.25284 L35.055377,14.87749 C34.388081,14.28604 33.622217,13.99031 32.757783,13.9903 Z M94.804159,9.29274 L90.140729,9.29274 C90.717019,10.05104 91.005159,10.96477 91.005169,12.03393 C91.005159,13.10312 90.614649,14.05097 89.833619,14.87749 C89.401399,15.33247 89.014669,15.65095 88.673449,15.83293 C88.430799,15.96184 88.081989,16.08696 87.627019,16.20827 C87.983409,17.32296 88.741689,18.05091 89.901869,18.39213 C90.326499,18.47553 90.599479,18.51724 90.720809,18.51724 C92.161539,18.51724 93.348249,17.63006 94.280949,15.85567 C94.629749,15.18839 94.804159,14.42632 94.804159,13.56945 L94.804159,9.29274 Z M14.149542,13.50121 C12.799794,13.50121 11.60171,14.03202 10.555285,15.0936 C10.047233,15.60924 9.793212,16.13625 9.793212,16.67462 C9.793212,17.38741 10.373294,17.7438 11.533469,17.7438 C12.989364,17.7438 14.312565,17.12959 15.503075,15.90117 C16.102108,15.28697 16.401639,14.7448 16.401639,14.27466 C16.15898,13.75903 15.408281,13.50121 14.149542,13.50121 Z M54.710046,9.29274 L49.375532,9.29274 L49.375532,14.01305 C49.375532,14.66518 49.553725,15.25664 49.910121,15.78743 C50.319589,16.39406 50.831429,16.69737 51.445642,16.69737 C52.105341,16.69737 52.681635,16.51539 53.174525,16.1514 C53.341339,16.04525 53.644652,15.77985 54.084463,15.35521 C54.25886,15.15806 54.467387,14.82063 54.710046,14.3429 L54.710046,9.29274 Z M7.472869,1.77438 C6.388521,1.7744 5.493749,2.01705 4.788551,2.50233 C3.901358,3.10897 3.457764,3.90517 3.457766,4.89092 C3.457764,6.1421 3.82553,7.08616 4.561066,7.7231 L16.025546,7.72501206 C15.9028914,7.49576974 15.7287348,7.14632065 15.503075,6.67667 C15.222497,6.03215 14.687909,5.33074 13.899308,4.57244 C12.898365,3.60944 11.920182,2.9232 10.964757,2.5137 C9.81216,2.02084 8.648199,1.7744 7.472869,1.77438 Z M26.80906,1.77438 C25.724712,1.7744 24.82994,2.01705 24.124742,2.50233 C23.237549,3.10897 22.793955,3.90517 22.793957,4.89092 C22.793955,6.1421 23.161721,7.08616 23.897257,7.7231 L35.3617374,7.72501206 C35.2390831,7.49576974 35.0649258,7.14632065 34.839266,6.67667 C34.558688,6.03215 34.0241,5.33074 33.2355,4.57244 C32.234556,3.60944 31.256373,2.9232 30.300948,2.5137 C29.148352,2.02084 27.98439,1.7744 26.80906,1.77438 Z M67.938275,2.52508 C67.081414,3.08623 66.652985,3.87484 66.652987,4.89092 C66.652985,6.1421 67.020751,7.08616 67.756287,7.7231 L80.905,7.723 L81.007264,7.87096 C79.793998,6.08144 78.406344,4.67483 76.844296,3.65113 C75.176066,2.55922 73.24624,1.95639 71.054813,1.84262 C69.788478,1.77442 68.749632,2.00188 67.938275,2.52508 Z" id="Combined-Shape" fill="#000000" fill-rule="nonzero"></path>
    </g>
</svg>

<svg xmlns="http://www.w3.org/2000/svg" width="107" height="25"><path fill="#000" fill-rule="nonzero" d="m104.893 7.723 1.558 1.57h-3.89v14.74l-1.865-1.887V9.293h-3.992v14.74l-1.854-1.876v-4.129c-.918 1.054-2.093 1.581-3.526 1.581-1.767 0-3.117-.675-4.05-2.024-.606-.88-.91-1.881-.91-3.003.683 0 1.293-.175 1.832-.523.599-.387.951-.899 1.058-1.536.045-.152.068-.413.068-.785 0-1.107-.417-1.922-1.251-2.445h-6.29v4.959l-5.323-.023c-1.434-.008-2.15.334-2.15 1.024 0 .41.114.758.341 1.046.243.311.565.467.967.467.318 0 .792-.05 1.422-.148.629-.106 1.103-.16 1.421-.16 1.092 0 2.029.463 2.81 1.388.75.88 1.126 1.877 1.126 2.992 0 .887-.444 1.656-1.33 2.308-.812.6-1.68.9-2.606.9-1.72 0-3.351-.782-4.89-2.344-1.04-1.054-2.12-2.582-3.242-4.584l.694-.398c.728 1.38 1.611 2.567 2.65 3.56 1.312 1.259 2.593 1.888 3.844 1.888.827 0 1.574-.269 2.241-.807.72-.569 1.08-1.255 1.08-2.059 0-.334-.113-.618-.34-.853a1.112 1.112 0 0 0-.83-.353c-.342 0-.831.133-1.468.398-.63.258-1.111.387-1.445.387-.864 0-1.626-.447-2.286-1.342-.205-.265-.66-1.08-1.365-2.445-.28-.539-.42-.975-.42-1.308 0-.645.344-1.073 1.034-1.286.387-.121.998-.182 1.832-.182h4.538V9.293H68.359v14.74l-1.888-1.876V9.293H62.49V24.01l-1.888-1.888V9.293h-3.936v14.74l-1.956-1.967v-4.698c-.622.372-1.547.558-2.775.558-1.206-.122-2.222-.667-3.049-1.638-.819-.948-1.228-2.032-1.228-3.253V9.293H36.943v4.379c.228-.205.395-.345.501-.421.258-.19.512-.318.762-.387a5.386 5.386 0 0 1 1.445-.216c1.16 0 2.119.406 2.877 1.217.759.804 1.138 1.794 1.138 2.969 0 .94-.334 1.827-1.001 2.661-.5.645-1.286 1.183-2.355 1.616l-.83-1.616c1.077-.5 1.797-.894 2.161-1.182.804-.63 1.206-1.32 1.206-2.07 0-.675-.315-1.286-.944-1.832-.402-.341-1.028-.47-1.877-.387-.402.038-.895.304-1.479.797a9.217 9.217 0 0 0-1.604 1.785v7.428l-1.888-1.911v-3.31c-.326.364-.807.679-1.444.944-.637.258-1.21.387-1.718.387-1.1 0-2.04-.376-2.82-1.126-.774-.751-1.16-1.676-1.16-2.776 0-1.122.367-2.047 1.103-2.775.735-.735 1.664-1.103 2.786-1.103 1.426 0 2.51.606 3.253 1.82V9.293H24.5v14.74l-1.888-1.887V9.293h-3.947v14.74L16.64 22.01v-4.083c-.568.379-1.22.713-1.956 1-.842.327-1.547.475-2.115.444-1.153-.06-2.15-.618-2.992-1.672-.667-.841-1-1.835-1-2.98.128-.591.348-1.065.659-1.422 1.206-1.137 2.54-1.68 4.004-1.626 1.455.045 2.59.743 3.4 2.093v-4.47H5.164v14.74l-1.888-1.887V9.293H1.592L0 7.723h3.299C2.54 6.608 2.16 5.251 2.16 3.651c0-1.145.444-2.051 1.33-2.718C4.213.394 5.184.125 6.405.125c1.228 0 2.282.137 3.162.41 1.023.31 2.043.856 3.06 1.637 1.723 1.33 3.057 3.18 4.002 5.55l4.335.001h1.672c-.759-1.115-1.138-2.472-1.138-4.072 0-1.145.444-2.051 1.331-2.718.72-.539 1.691-.808 2.912-.808 1.228 0 2.282.137 3.162.41 1.024.31 2.043.856 3.06 1.637 1.723 1.33 3.057 3.18 4.002 5.55l9.942.001H60.91a12.866 12.866 0 0 0-1.57-3.105c-.894-1.312-1.747-1.968-2.559-1.968-.796 0-1.43.326-1.9.978-.424.584-.636 1.29-.636 2.116 0 .516.163 1.122.489 1.82H52.89a5.938 5.938 0 0 1-.387-2.116c0-1.357.281-2.43.842-3.219.652-.902 1.63-1.353 2.935-1.353 1.395 0 2.616.83 3.662 2.49.539.858 1.187 2.31 1.945 4.357h4.607c-.759-1.115-1.138-2.472-1.138-4.072 0-1.175.512-2.1 1.536-2.775C67.779.292 68.844 0 70.088 0c2.358 0 4.55.781 6.574 2.343 2.275 1.758 3.891 3.551 4.85 5.38h23.381ZM32.758 13.99c-1.107 0-1.964.216-2.57.649-.835.591-1.29 1.38-1.366 2.365-.045.622.125 1.123.512 1.502.319.303.758.455 1.32.455.803 0 1.725-.41 2.763-1.229 1.092-.864 1.638-1.69 1.638-2.48v-.375c-.667-.591-1.433-.887-2.297-.887Zm62.046-4.697h-4.663c.576.758.864 1.672.864 2.74 0 1.07-.39 2.018-1.171 2.844-.433.455-.82.774-1.16.956-.243.129-.592.254-1.047.375.356 1.115 1.115 1.843 2.275 2.184.424.084.697.125.819.125 1.44 0 2.627-.887 3.56-2.661.349-.668.523-1.43.523-2.287V9.293ZM14.15 13.5c-1.35 0-2.548.531-3.595 1.593-.508.515-.762 1.042-.762 1.58 0 .713.58 1.07 1.74 1.07 1.456 0 2.78-.614 3.97-1.843.6-.614.899-1.156.899-1.626-.243-.516-.994-.774-2.252-.774Zm40.56-4.208h-5.334v4.72c0 .652.178 1.244.534 1.774.41.607.921.91 1.536.91.66 0 1.236-.182 1.729-.546.166-.106.47-.371.91-.796.174-.197.382-.534.625-1.012v-5.05ZM7.473 1.774c-1.084 0-1.98.243-2.684.728-.888.607-1.331 1.403-1.331 2.389 0 1.251.368 2.195 1.103 2.832l11.465.002c-.123-.23-.297-.579-.523-1.048-.28-.645-.815-1.346-1.604-2.105-1-.963-1.979-1.649-2.934-2.058-1.153-.493-2.317-.74-3.492-.74Zm19.336 0c-1.084 0-1.98.243-2.684.728-.887.607-1.331 1.403-1.331 2.389 0 1.251.368 2.195 1.103 2.832l11.465.002c-.123-.23-.297-.579-.523-1.048-.28-.645-.815-1.346-1.603-2.105-1.001-.963-1.98-1.649-2.935-2.058-1.153-.493-2.317-.74-3.492-.74Zm41.13.751c-.858.561-1.286 1.35-1.286 2.366 0 1.251.368 2.195 1.103 2.832h13.149l.102.148c-1.213-1.79-2.6-3.196-4.163-4.22-1.668-1.092-3.598-1.695-5.79-1.808-1.266-.069-2.304.159-3.116.682Z"/></svg>
